symbols/web/forward/materialsymbolsrounded/forward_wght100grad200_24px.svg

<svg xmlns="http://www.w3.org/2000/svg" height="24" width="24"><path d="M3.9 18.8q-.275 0-.475-.2-.2-.2-.2-.475V15.05q0-1.975 1.387-3.362Q6 10.3 7.975 10.3h10.2l-3.55-3.55q-.2-.2-.2-.45t.225-.475q.225-.225.475-.225.25 0 .475.225l4.425 4.425q.175.175.25.362.075.188.075.388t-.075.387q-.075.188-.25.363l-4.45 4.45q-.2.2-.45.2t-.475-.225q-.225-.225-.225-.463 0-.237.225-.487l3.525-3.575h-10.2q-1.425 0-2.413.987-.987.988-.987 2.413v3.075q0 .275-.2.475-.2.2-.475.2Z"/></svg>

<svg xmlns="http://www.w3.org/2000/svg" height="24" width="24"><path d="M3.9 18.8Q3.625 18.8 3.425 18.6Q3.225 18.4 3.225 18.125V15.05Q3.225 13.075 4.612 11.688Q6 10.3 7.975 10.3H18.175L14.625 6.75Q14.425 6.55 14.425 6.3Q14.425 6.05 14.65 5.825Q14.875 5.6 15.125 5.6Q15.375 5.6 15.6 5.825L20.025 10.25Q20.2 10.425 20.275 10.612Q20.35 10.8 20.35 11Q20.35 11.2 20.275 11.387Q20.2 11.575 20.025 11.75L15.575 16.2Q15.375 16.4 15.125 16.4Q14.875 16.4 14.65 16.175Q14.425 15.95 14.425 15.712Q14.425 15.475 14.65 15.225L18.175 11.65H7.975Q6.55 11.65 5.562 12.637Q4.575 13.625 4.575 15.05V18.125Q4.575 18.4 4.375 18.6Q4.175 18.8 3.9 18.8Z"/></svg>
